svgs/regular/note-medical.svg

<svg xmlns="http://www.w3.org/2000/svg" viewBox="0 0 448 512"><!-- Font Awesome Pro 6.0.0-alpha2 by @fontawesome - https://fontawesome.com License - https://fontawesome.com/license (Commercial License) --><path d="M384 32H64.02C28.674 32 0.02 60.652 0.02 96L0 416C0 451.344 28.654 480 64 480H309.373C326.348 480 342.625 473.258 354.627 461.254L429.256 386.617C441.258 374.613 448 358.336 448 341.359V96C448 60.797 419.199 32 384 32ZM400.002 320H320.008C302.334 320 288.008 334.328 288.008 352V431.875H64C55.164 431.875 48 424.711 48 415.875L48.018 96C48.018 87.164 55.18 80 64.018 80H384.002C392.838 80 400.002 87.164 400.002 96V320ZM304 192H256V144C256 135.199 248.801 128 240 128H208C199.199 128 192 135.199 192 144V192H144C135.199 192 128 199.195 128 207.996V240C128 248.797 135.199 255.996 144 255.996H192V303.996C192 312.797 199.199 320 208 320H240C248.801 320 256 312.797 256 303.996V255.996H304C312.801 255.996 320 248.797 320 240V207.996C320 199.195 312.801 192 304 192Z"/></svg>

<svg xmlns="http://www.w3.org/2000/svg" viewBox="0 0 448 512"><!--! Font Awesome Pro 6.4.0 by @fontawesome - https://fontawesome.com License - https://fontawesome.com/license (Commercial License) Copyright 2023 Fonticons, Inc. --><path d="M384 80c8.8 0 16 7.2 16 16V320H320c-17.7 0-32 14.3-32 32v80H64c-8.8 0-16-7.2-16-16V96c0-8.8 7.2-16 16-16H384zM64 480H288h5.5c17 0 33.3-6.7 45.3-18.7l90.5-90.5c12-12 18.7-28.3 18.7-45.3V320 96c0-35.3-28.7-64-64-64H64C28.7 32 0 60.7 0 96V416c0 35.3 28.7 64 64 64zM192 144v48H144c-8.8 0-16 7.2-16 16v32c0 8.8 7.2 16 16 16h48v48c0 8.8 7.2 16 16 16h32c8.8 0 16-7.2 16-16V256h48c8.8 0 16-7.2 16-16V208c0-8.8-7.2-16-16-16H256V144c0-8.8-7.2-16-16-16H208c-8.8 0-16 7.2-16 16z"/></svg>
